X:177
T:Reel 177
M:4/4
K:Gmaj
L:1/8
G2GA Bdde|dBgB dega|G2ge dega|bagb a2g2|GBGA Bdde|dBge dBgB|B2ge degb|d'bgc' ad'g2|d'3a bc'd'a|b2e'd' addg|bc'd'b c'd'e'c'|d'bgb a2g2|bd'd'c' e'c'ec'|d'be'b d'2d'c'|d'bc'd' bgaf|gedB BAA2|
